!!!COM: Mozart	
!!!OTL: Zehn Variationen in G, uber die Ariette 'Unser dummer Pobel meint' aus dem Singspiel 'Die Pilgrime von Mekka'
!!!Variation: Variation 10 b2
!!!COM: Mozart
**function	**harm	**kern	**kern
*M3/8	*M3/8	*staff2	*staff1
*G:	*G:	*clefF4	*clefG2
*tb32	*	*k[f#]	*k[f#]
*	*	*met(c|)	*met(c|)
*	*	*M3/8	*M3/8
*	*	*G:	*G:
=-	=-	=-	=-
4.P	4.V65/ii	8eL	8G#L 8B 8d
.	.	8e	8G# 8B 8d
.	.	8eJ	8G#J 8B 8d
=	=	=233	=233
4.P	4.i/ii	8a'L	8A 8c
.	.	(32aLL	8r
.	.	32b	.
.	.	32cc	.
.	.	32ddJJ	.
.	.	8eeJ)	8r
*	*	*	*clefG2
=	=	=234	=234
4.P	4.V65/ii	8eeL 8eee	8g#L 8b 8dd
.	.	8ee 8eee	8g# 8b 8dd
.	.	8eeJ 8eee	8g#J 8b 8dd
=	=	=235	=235
4.P	4.ii	8eee'L	8a 8cc
.	.	(32eeeLL	8r
.	.	32ddd	.
.	.	32ccc	.
.	.	32bbJJ	.
.	.	8aaJ)	8r
*	*	*	*clefF4
=	=	=236	=236
4.D	4.V65	8dL	8F#L 8A 8c
.	.	8d	8F# 8A 8c
.	.	8dJ	8F#J 8A 8c
=	=	=237	=237
4.D	4.I	8gn'L	8Gn 8B
.	.	(32gLL	8r
.	.	32a	.
.	.	32b	.
.	.	32ccJJ	.
.	.	8ddJ)	8r
*	*	*	*clefG2
=	=	=238	=238
4.D	4.V65	8ddL 8ddd	8f#L 8a 8cc
.	.	8dd 8ddd	8f# 8a 8cc
.	.	8ddJ 8ddd	8f#J 8a 8cc
=	=	=239	=239
4.T	4.I	8ddd'L	8g 8b
.	.	(32dddLL	8r
.	.	32ccc	.
.	.	32bb	.
.	.	32aaJJ	.
.	.	8ggJ)	8r
=	=	=240	=240
*	*	*	*clefF4
*-	*-	*-	*-
